optimized/24/outline/chat-bubble-bottom-center-text.svg

<svg xmlns="http://www.w3.org/2000/svg" fill="none" viewBox="0 0 24 24">
  <path stroke-linecap="round" stroke-linejoin="round" d="M7.5 8.25H16.5M7.5 11.25H12M2.25 12.7593C2.25 14.3604 3.37341 15.754 4.95746 15.987C6.08596 16.1529 7.22724 16.2796 8.37985 16.3655C8.73004 16.3916 9.05017 16.5753 9.24496 16.8674L12 21L14.755 16.8675C14.9498 16.5753 15.2699 16.3917 15.6201 16.3656C16.7727 16.2796 17.914 16.153 19.0425 15.9871C20.6266 15.7542 21.75 14.3606 21.75 12.7595V6.74056C21.75 5.13946 20.6266 3.74583 19.0425 3.51293C16.744 3.17501 14.3926 3 12.0003 3C9.60776 3 7.25612 3.17504 4.95747 3.51302C3.37342 3.74593 2.25 5.13956 2.25 6.74064V12.7593Z"/>
</svg>

<svg xmlns="http://www.w3.org/2000/svg" fill="none" viewBox="0 0 24 24" stroke-width="1.5" stroke="currentColor" aria-hidden="true">
  <path stroke-linecap="round" stroke-linejoin="round" d="M7.5 8.25h9m-9 3H12m-9.75 1.51c0 1.6 1.123 2.994 2.707 3.227 1.129.166 2.27.293 3.423.379.35.026.67.21.865.501L12 21l2.755-4.133a1.14 1.14 0 01.865-.501 48.172 48.172 0 003.423-.379c1.584-.233 2.707-1.626 2.707-3.228V6.741c0-1.602-1.123-2.995-2.707-3.228A48.394 48.394 0 0012 3c-2.392 0-4.744.175-7.043.513C3.373 3.746 2.25 5.14 2.25 6.741v6.018z"/>
</svg>
